X:113
T:Valzer Triste
C:Valla/Guglielmetti
N:
M:3/4
L:1/4
K:C
e3|~dcd|e3|~ede|fga|ag~f|e3-|e3|
def|~fed|cde|~edc|Bcd|~dcB|A3-|A3:|
K:G
|:B>c B/A/|Gcd|efg|~d B2|B>c B/A/|GAB|cdc|A3|
c>d c/B/|ABc|ded|f3-|f~ed|~fed|cBA|G3-|G3:|
